static/finance.svg

<?xml version="1.0" encoding="utf-8"?><!-- Uploaded to: SVG Repo, www.svgrepo.com, Generator: SVG Repo Mixer Tools -->
<svg width="800px" height="800px" viewBox="0 0 24 24" fill="none" xmlns="http://www.w3.org/2000/svg">
<path fill-rule="evenodd" clip-rule="evenodd" d="M10.8321 1.24802C11.5779 0.917327 12.4221 0.917327 13.1679 1.24802L21.7995 5.0754C23.7751 5.95141 23.1703 9 21.0209 9H2.97906C0.829669 9 0.224891 5.9514 2.20047 5.0754L10.8321 1.24802ZM12.3893 3.12765C12.1407 3.01742 11.8593 3.01742 11.6107 3.12765L3.41076 6.76352C3.31198 6.80732 3.34324 6.95494 3.45129 6.95494H20.5487C20.6568 6.95494 20.688 6.80732 20.5892 6.76352L12.3893 3.12765Z" fill="#0F0F0F"/>
<path d="M2 22C2 21.4477 2.44772 21 3 21H21C21.5523 21 22 21.4477 22 22C22 22.5523 21.5523 23 21 23H3C2.44772 23 2 22.5523 2 22Z" fill="#0F0F0F"/>
<path d="M11 19C11 19.5523 11.4477 20 12 20C12.5523 20 13 19.5523 13 19V11C13 10.4477 12.5523 10 12 10C11.4477 10 11 10.4477 11 11V19Z" fill="#0F0F0F"/>
<path d="M6 20C5.44772 20 5 19.5523 5 19L5 11C5 10.4477 5.44771 10 6 10C6.55228 10 7 10.4477 7 11L7 19C7 19.5523 6.55229 20 6 20Z" fill="#0F0F0F"/>
<path d="M17 19C17 19.5523 17.4477 20 18 20C18.5523 20 19 19.5523 19 19V11C19 10.4477 18.5523 10 18 10C17.4477 10 17 10.4477 17 11V19Z" fill="#0F0F0F"/>
</svg>

<svg xmlns="http://www.w3.org/2000/svg" width="800" height="800" fill="none" viewBox="0 0 24 24"><path fill="currentColor" fill-rule="evenodd" d="M10.83 1.25a2.9 2.9 0 0 1 2.34 0l8.63 3.83c1.98.87 1.37 3.92-.78 3.92H2.98C.83 9 .22 5.95 2.2 5.08zm1.56 1.88a1 1 0 0 0-.78 0l-8.2 3.63c-.1.05-.07.2.04.2h17.1c.1 0 .14-.15.04-.2z" clip-rule="evenodd"/><path fill="currentColor" d="M2 22a1 1 0 0 1 1-1h18a1 1 0 1 1 0 2H3a1 1 0 0 1-1-1M11 19a1 1 0 1 0 2 0v-8a1 1 0 1 0-2 0zM6 20a1 1 0 0 1-1-1v-8a1 1 0 1 1 2 0v8a1 1 0 0 1-1 1M17 19a1 1 0 1 0 2 0v-8a1 1 0 1 0-2 0z"/></svg>
